dataset/ppsspp/icon.svg

<?xml version="1.0" encoding="UTF-8" standalone="no"?>
<svg
   viewBox="0 0 128 128"
   style="display:inline;enable-background:new"
   version="1.0"
   id="svg11300"
   height="128"
   width="128"
   xml:space="preserve"
   xmlns:xlink="http://www.w3.org/1999/xlink"
   xmlns="http://www.w3.org/2000/svg"
   xmlns:svg="http://www.w3.org/2000/svg"
   xmlns:rdf="http://www.w3.org/1999/02/22-rdf-syntax-ns#"
   xmlns:cc="http://creativecommons.org/ns#"
   xmlns:dc="http://purl.org/dc/elements/1.1/"><title
     id="title4162">Adwaita Icon Template</title><defs
     id="defs3"><linearGradient
       id="linearGradient13"><stop
         style="stop-color:#446c83;stop-opacity:1;"
         offset="0"
         id="stop12" /><stop
         style="stop-color:#35606e;stop-opacity:1;"
         offset="1"
         id="stop13" /></linearGradient><linearGradient
       id="linearGradient3800-7-2"><stop
         style="stop-color:#5ca2b8;stop-opacity:1;"
         offset="0"
         id="stop3802-4-8" /><stop
         style="stop-color:#aedce8;stop-opacity:1;"
         offset="1"
         id="stop3804-0-6" /></linearGradient><linearGradient
       xlink:href="#linearGradient3800-7-2"
       id="linearGradient5901"
       gradientUnits="userSpaceOnUse"
       spreadMethod="pad"
       x1="396.35013"
       y1="-224.8987"
       x2="378.80692"
       y2="-368.20535"
       gradientTransform="matrix(0.23492182,0,0,0.23481352,7.3708245,109.48165)" /><linearGradient
       xlink:href="#linearGradient3800-7-2"
       id="linearGradient5903"
       gradientUnits="userSpaceOnUse"
       spreadMethod="pad"
       x1="450.1077"
       y1="-143.3038"
       x2="433.4119"
       y2="-242.45497"
       gradientTransform="matrix(0.23492182,0,0,0.23481352,7.3708245,109.48165)" /><linearGradient
       xlink:href="#linearGradient3800-7-2"
       id="linearGradient5905"
       gradientUnits="userSpaceOnUse"
       spreadMethod="pad"
       x1="489.50595"
       y1="-113.46021"
       x2="442.4953"
       y2="-202.20998"
       gradientTransform="matrix(0.23492182,0,0,0.23481352,7.3708245,109.48165)" /><linearGradient
       xlink:href="#linearGradient3800-7-2"
       id="linearGradient5579-3"
       gradientUnits="userSpaceOnUse"
       spreadMethod="pad"
       x1="446.69247"
       y1="-139.79538"
       x2="425.41571"
       y2="-267.90073"
       gradientTransform="matrix(0.23492182,0,0,0.23481352,7.3708245,109.48165)" /><linearGradient
       xlink:href="#linearGradient3800-7-2"
       id="linearGradient35"
       gradientUnits="userSpaceOnUse"
       gradientTransform="matrix(0.22748442,0,0,0.22737955,9.1638,107.97841)"
       x1="489.50595"
       y1="-113.46021"
       x2="442.4953"
       y2="-202.20998"
       spreadMethod="pad" /><linearGradient
       xlink:href="#linearGradient13"
       id="linearGradient42"
       gradientUnits="userSpaceOnUse"
       x1="13.731661"
       y1="66"
       x2="18.361658"
       y2="86.81131" /><linearGradient
       xlink:href="#linearGradient13"
       id="linearGradient43"
       gradientUnits="userSpaceOnUse"
       x1="13.731661"
       y1="66"
       x2="18.361658"
       y2="86.81131" /><linearGradient
       xlink:href="#linearGradient13"
       id="linearGradient44"
       gradientUnits="userSpaceOnUse"
       x1="13.731661"
       y1="66"
       x2="18.361658"
       y2="86.81131" /><linearGradient
       xlink:href="#linearGradient13"
       id="linearGradient45"
       gradientUnits="userSpaceOnUse"
       x1="13.731661"
       y1="66"
       x2="18.361658"
       y2="86.81131" /></defs><metadata
     id="metadata4"><rdf:RDF><cc:Work
         rdf:about=""><dc:format>image/svg+xml</dc:format><dc:type
           rdf:resource="http://purl.org/dc/dcmitype/StillImage" /><dc:creator><cc:Agent><dc:title>GNOME Design Team</dc:title></cc:Agent></dc:creator><dc:source /><cc:license
           rdf:resource="http://creativecommons.org/licenses/by-sa/4.0/" /><dc:title>Adwaita Icon Template</dc:title><dc:subject><rdf:Bag /></dc:subject><dc:date /><dc:rights><cc:Agent><dc:title /></cc:Agent></dc:rights><dc:publisher><cc:Agent><dc:title /></cc:Agent></dc:publisher><dc:identifier /><dc:relation /><dc:language /><dc:coverage /><dc:description /><dc:contributor><cc:Agent><dc:title /></cc:Agent></dc:contributor></cc:Work><cc:License
         rdf:about="http://creativecommons.org/licenses/by-sa/4.0/"><cc:permits
           rdf:resource="http://creativecommons.org/ns#Reproduction" /><cc:permits
           rdf:resource="http://creativecommons.org/ns#Distribution" /><cc:requires
           rdf:resource="http://creativecommons.org/ns#Notice" /><cc:requires
           rdf:resource="http://creativecommons.org/ns#Attribution" /><cc:permits
           rdf:resource="http://creativecommons.org/ns#DerivativeWorks" /><cc:requires
           rdf:resource="http://creativecommons.org/ns#ShareAlike" /></cc:License></rdf:RDF></metadata><style
     type="text/css"
     id="style1">
	.st0{fill:#0061FF;}
	.st1{display:none;}
	.st2{display:inline;}
	.st3{fill:none;}
</style><path
     id="path39"
     style="fill:url(#linearGradient42);fill-opacity:1;stroke:none;stroke-width:0.234868"
     d="m 65.308865,115.82146 c 0.004,-8.5e-4 0.0081,-0.001 0.0121,-0.002 l 18.521933,-4.25174 c 3.785297,-0.86873 6.41648,-4.17839 6.415815,-7.88726 L 90.258003,99.716541 85.611792,82.341596 64.465767,68.866149 51.163779,86.232025 v 4 l 4.511986,19.784565 c 1.18776,4.15376 5.37224,6.69886 9.6331,5.80487 z" /><path
     id="path38"
     style="fill:url(#linearGradient43);fill-opacity:1;stroke:none;stroke-width:0.234868"
     d="m 108.29476,74.1224 0.008,-0.0021 c 3.59118,-1.034665 5.97112,-4.310882 5.96532,-7.935869 l -0.006,-3.66828 -4.62441,-17.428222 c -1.36467,-3.942474 -5.48667,-6.288201 -9.64924,-5.332896 l -19.395286,4.451475 -13.481498,17.12989 v 4 l 21.377978,13.297954 z" /><path
     id="path37"
     style="fill:url(#linearGradient44);fill-opacity:1;stroke:none;stroke-width:0.234868"
     d="m 19.700899,57.778805 -0.004,0.0021 c -3.167545,0.913404 -5.971065,0.927855 -5.963849,4.065759 l 0.0079,3.456776 c 0.0017,0.741737 0.02902,1.499686 0.203472,2.259821 l 4.417188,19.248046 c 1.363981,3.943625 5.485999,6.290372 9.649235,5.334913 L 47.406145,87.694662 60.88966,66.564773 v -4 L 39.509665,53.26682 Z" /><path
     id="path36"
     style="fill:url(#linearGradient45);fill-opacity:1;stroke:none;stroke-width:0.234868"
     d="M 71.890273,21.979416 C 70.68687,17.776719 66.417194,15.222968 62.103882,16.212868 l -19.342843,4.439375 c -2.940393,1.04975 -5.466065,0.928613 -5.466975,3.942395 l -0.0012,3.937325 c -1.74e-4,0.57536 0.07779,1.158898 0.211912,1.743294 l 4.447442,19.383184 21.148042,13.475448 13.29997,-21.365876 v -4 z" /><path
     id="path29"
     style="fill:url(#linearGradient35);fill-opacity:1;stroke:none;stroke-width:0.227432"
     d="m 83.214844,106.125 -17.935547,4.11719 c 0.04643,-0.01 0.09222,-0.0206 0.138672,-0.0312 z" /><path
     id="path23"
     style="fill:url(#linearGradient5901);fill-opacity:1;stroke:none;stroke-width:0.234868"
     d="M 71.890273,17.979416 C 70.68687,13.776719 66.417194,11.222968 62.103882,12.212868 l -19.342843,4.439375 c -3.896521,1.391098 -6.205406,5.487247 -5.256252,9.623014 l 4.447442,19.383184 21.148042,13.475448 13.29997,-21.365876 z" /><path
     id="path27"
     style="fill:url(#linearGradient5903);fill-opacity:1;stroke:none;stroke-width:0.234868"
     d="m 19.700899,53.778805 -0.004,0.0021 c -4.193695,1.209308 -6.74114,5.474223 -5.752428,9.782356 l 4.417188,19.248046 c 1.363981,3.943625 5.485999,6.290372 9.649235,5.334913 L 47.406145,83.694662 60.88966,62.564773 39.509665,49.26682 Z" /><path
     id="path30"
     style="fill:url(#linearGradient5905);fill-opacity:1;stroke:none;stroke-width:0.234868"
     d="m 65.308865,111.82146 c 0.004,-8.5e-4 0.0081,-0.001 0.0121,-0.002 l 18.521933,-4.25174 c 4.460929,-1.02379 7.228011,-5.43842 6.204232,-9.899346 L 85.611792,78.341596 64.465767,64.866149 51.163779,86.232025 55.675765,106.01659 c 1.18776,4.15376 5.37224,6.69886 9.6331,5.80487 z" /><path
     id="path33"
     style="fill:url(#linearGradient5579-3);fill-opacity:1;stroke:none;stroke-width:0.234868"
     d="m 108.29476,70.1224 0.008,-0.0021 c 4.19481,-1.208578 6.74129,-5.475599 5.75243,-9.784373 l -4.41738,-19.247998 c -1.36467,-3.942474 -5.48667,-6.288201 -9.64924,-5.332896 l -19.395286,4.451475 -13.481498,21.12989 21.377978,13.297954 z" /></svg>

<svg xmlns="http://www.w3.org/2000/svg" xmlns:xlink="http://www.w3.org/1999/xlink" xml:space="preserve" width="128" height="128" style="display:inline" viewBox="0 0 128 128"><title>Adwaita Icon Template</title><defs><linearGradient id="b"><stop offset="0" style="stop-color:#446c83;stop-opacity:1"/><stop offset="1" style="stop-color:#35606e;stop-opacity:1"/></linearGradient><linearGradient id="a"><stop offset="0" style="stop-color:#5ca2b8;stop-opacity:1"/><stop offset="1" style="stop-color:#aedce8;stop-opacity:1"/></linearGradient><linearGradient xlink:href="#a" id="h" x1="396.35" x2="378.807" y1="-224.899" y2="-368.205" gradientTransform="matrix(.23492 0 0 .23481 7.37 109.482)" gradientUnits="userSpaceOnUse" spreadMethod="pad"/><linearGradient xlink:href="#a" id="i" x1="450.108" x2="433.412" y1="-143.304" y2="-242.455" gradientTransform="matrix(.23492 0 0 .23481 7.37 109.482)" gradientUnits="userSpaceOnUse" spreadMethod="pad"/><linearGradient xlink:href="#a" id="j" x1="489.506" x2="442.495" y1="-113.46" y2="-202.21" gradientTransform="matrix(.23492 0 0 .23481 7.37 109.482)" gradientUnits="userSpaceOnUse" spreadMethod="pad"/><linearGradient xlink:href="#a" id="k" x1="446.692" x2="425.416" y1="-139.795" y2="-267.901" gradientTransform="matrix(.23492 0 0 .23481 7.37 109.482)" gradientUnits="userSpaceOnUse" spreadMethod="pad"/><linearGradient xlink:href="#a" id="g" x1="489.506" x2="442.495" y1="-113.46" y2="-202.21" gradientTransform="matrix(.22748 0 0 .22738 9.164 107.978)" gradientUnits="userSpaceOnUse" spreadMethod="pad"/><linearGradient xlink:href="#b" id="c" x1="13.732" x2="18.362" y1="66" y2="86.811" gradientUnits="userSpaceOnUse"/><linearGradient xlink:href="#b" id="d" x1="13.732" x2="18.362" y1="66" y2="86.811" gradientUnits="userSpaceOnUse"/><linearGradient xlink:href="#b" id="e" x1="13.732" x2="18.362" y1="66" y2="86.811" gradientUnits="userSpaceOnUse"/><linearGradient xlink:href="#b" id="f" x1="13.732" x2="18.362" y1="66" y2="86.811" gradientUnits="userSpaceOnUse"/></defs><path d="M65.309 115.821q.006 0 .012-.002l18.522-4.251c3.785-.869 6.416-4.179 6.416-7.888l-.001-3.963-4.646-17.375-21.146-13.476-13.302 17.366v4l4.512 19.785a8.243 8.243 0 0 0 9.633 5.804" style="fill:url(#c);fill-opacity:1;stroke:none;stroke-width:.234868"/><path d="m108.295 74.122.008-.002a8.244 8.244 0 0 0 5.965-7.936l-.006-3.668-4.624-17.428a8.24 8.24 0 0 0-9.65-5.333l-19.395 4.452-13.481 17.13v4L88.49 78.633z" style="fill:url(#d);fill-opacity:1;stroke:none;stroke-width:.234868"/><path d="m19.7 57.779-.003.002c-3.168.913-5.971.928-5.964 4.066l.008 3.456c.002.742.029 1.5.203 2.26l4.418 19.248a8.24 8.24 0 0 0 9.649 5.335l19.395-4.451 13.484-21.13v-4l-21.38-9.298Z" style="fill:url(#e);fill-opacity:1;stroke:none;stroke-width:.234868"/><path d="M71.89 21.98a8.24 8.24 0 0 0-9.786-5.767l-19.343 4.44c-2.94 1.049-5.466.928-5.467 3.942l-.001 3.937c0 .575.078 1.159.212 1.743l4.447 19.383L63.1 63.134l13.3-21.366v-4z" style="fill:url(#f);fill-opacity:1;stroke:none;stroke-width:.234868"/><path d="m83.215 106.125-17.936 4.117.139-.031z" style="fill:url(#g);fill-opacity:1;stroke:none;stroke-width:.227432"/><path d="M71.89 17.98a8.24 8.24 0 0 0-9.786-5.767l-19.343 4.44a8.24 8.24 0 0 0-5.256 9.622l4.447 19.383L63.1 59.134l13.3-21.366z" style="fill:url(#h);fill-opacity:1;stroke:none;stroke-width:.234868"/><path d="m19.7 53.779-.003.002a8.24 8.24 0 0 0-5.753 9.782l4.418 19.248a8.24 8.24 0 0 0 9.649 5.335l19.395-4.451 13.484-21.13-21.38-13.298Z" style="fill:url(#i);fill-opacity:1;stroke:none;stroke-width:.234868"/><path d="M65.309 111.821q.006 0 .012-.002l18.522-4.251a8.243 8.243 0 0 0 6.204-9.9l-4.435-19.326-21.146-13.476-13.302 21.366 4.512 19.785a8.243 8.243 0 0 0 9.633 5.804" style="fill:url(#j);fill-opacity:1;stroke:none;stroke-width:.234868"/><path d="m108.295 70.122.008-.002a8.24 8.24 0 0 0 5.752-9.784l-4.417-19.248a8.24 8.24 0 0 0-9.65-5.333l-19.395 4.452-13.481 21.13L88.49 74.633z" style="fill:url(#k);fill-opacity:1;stroke:none;stroke-width:.234868"/></svg>
